src/images/app-icons/dark-theme/116.svg

<svg xmlns="http://www.w3.org/2000/svg" viewBox="0 0 32 32"><defs><linearGradient id="116_svg__a" x1="20" y1="20" x2="20" y2="13" gradientUnits="userSpaceOnUse"><stop offset=".2"/><stop offset="1" stop-opacity="0"/></linearGradient><linearGradient id="116_svg__c" y1="32" x2="32" gradientUnits="userSpaceOnUse"><stop offset=".1" stop-color="#ff7eb6"/><stop offset=".9" stop-color="#a56eff"/></linearGradient><mask id="116_svg__b" x="0" y="0" width="32" height="32" maskUnits="userSpaceOnUse"><path d="M19 23v4H5V13h14v7h2v-7a2 2 0 00-2-2H5a2 2 0 00-2 2v14a2 2 0 002 2h14a2 2 0 002-2v-4z" fill="#fff"/><path fill="url(#116_svg__a)" d="M22 20h-4l1-7h2l1 7z"/></mask></defs><g data-name="Layer 2"><g data-name="Dark theme icons"><g mask="url(#116_svg__b)"><path fill="url(#116_svg__c)" d="M0 0h32v32H0z"/></g><path d="M27 3H13a2 2 0 00-2 2v4h2V5h14v14H13v-4h-2v4a2 2 0 002 2h14a2 2 0 002-2V5a2 2 0 00-2-2z" fill="#f4f4f4"/></g></g></svg>

<svg xmlns="http://www.w3.org/2000/svg" xmlns:xlink="http://www.w3.org/1999/xlink" viewBox="0 0 32 32"><defs><style>.cls-1{fill:#fff;}.cls-2{fill:url(#linear-gradient);}.cls-3{mask:url(#mask);}.cls-4{fill:url(#linear-gradient-2);}.cls-5{fill:#f4f4f4;}</style><linearGradient id="linear-gradient" x1="20" y1="20" x2="20" y2="13" gradientUnits="userSpaceOnUse"><stop offset="0.2"/><stop offset="1" stop-opacity="0"/></linearGradient><mask id="mask" x="0" y="0" width="32" height="32" maskUnits="userSpaceOnUse"><path class="cls-1" d="M19,23v4H5V13H19v7h2V13a2,2,0,0,0-2-2H5a2,2,0,0,0-2,2V27a2,2,0,0,0,2,2H19a2,2,0,0,0,2-2V23Z"/><polygon class="cls-2" points="22 20 18 20 19 13 21 13 22 20"/></mask><linearGradient id="linear-gradient-2" y1="32" x2="32" gradientUnits="userSpaceOnUse"><stop offset="0.1" stop-color="#ff7eb6"/><stop offset="0.9" stop-color="#a56eff"/></linearGradient></defs><g id="Layer_2" data-name="Layer 2"><g id="Dark_theme_icons" data-name="Dark theme icons"><g class="cls-3"><rect class="cls-4" width="32" height="32"/></g><path class="cls-5" d="M27,3H13a2,2,0,0,0-2,2V9h2V5H27V19H13V15H11v4a2,2,0,0,0,2,2H27a2,2,0,0,0,2-2V5A2,2,0,0,0,27,3Z"/></g></g></svg>
